X: 110928
T: Kiss in the Shelter
S: "First Collection of Traditional Irish Music" (M.Mulvihill)
Z: B.Black
L: 1/8
M: 9/8
R: slip jig
K: G
c|: BAG ADD ADD|BAG ADD EDC|BAG ADD ADD|GAB cBA GED :|
c3 B/c/dB cBA|Bdd dcd ecA|c3 BdB cBA|GAB cBA GED|
c3 BdB cBA|d3 dcd ecA|cde dcB cBA|GAB cBA GED||
